logo/dependabot.svg

<?xml version="1.0" encoding="UTF-8"?>
<svg width="256px" height="274px" viewBox="0 0 256 274" version="1.1" xmlns="http://www.w3.org/2000/svg" preserveAspectRatio="xMidYMid">
    <title>Dependabot</title>
    <g>
        <path d="M118.840072,2.1787935 C123.922692,-0.722989433 132.151779,-0.72953772 137.245869,2.1787935 L246.797102,73.6932383 C251.879722,76.5950212 256,83.6791374 256,89.5416798 L256,182.886728 C256,188.737798 251.891191,195.826839 246.797102,198.73517 L137.245869,271.285512 C132.163249,274.187295 123.934162,274.193843 118.840072,271.285512 L9.20289876,198.73517 C4.12027812,195.833388 0,188.749271 0,182.886728 L0,89.5416798 C0,83.6906102 4.10880846,76.6015694 9.20289876,73.6932383 L118.840072,2.1787935 Z" fill="#2B64CF"></path>
        <path d="M143.10673,59.9553077 C144.16332,59.9553077 145.019855,60.8118428 145.019855,61.8684324 L145.01936,94.2796346 L188.247314,94.2797758 C193.001967,94.2797758 196.856375,98.1341838 196.856375,102.888837 L196.855474,136.788309 L201.854064,136.788417 C203.438948,136.788417 204.723751,138.073219 204.723751,139.658104 L204.723751,168.013545 C204.723751,169.598429 203.438948,170.883232 201.854064,170.883232 L196.855474,170.883061 L196.856375,187.867819 C196.856375,192.622472 193.001967,196.47688 188.247314,196.47688 L68.1987385,196.47688 C63.4440853,196.47688 59.5896773,192.622472 59.5896773,187.867819 L59.5887759,170.883061 L54.1459361,170.883232 C52.5610517,170.883232 51.2762491,169.598429 51.2762491,168.013545 L51.2762491,139.658104 C51.2762491,138.073219 52.5610517,136.788417 54.1459361,136.788417 L59.5887759,136.788309 L59.5896773,102.888837 C59.5896773,98.1341838 63.4440853,94.2797758 68.1987385,94.2797758 L137.120068,94.2796346 L137.120068,85.1674216 L121.719912,85.1683746 C120.663323,85.1683746 119.806788,84.3118395 119.806788,83.2552499 L119.806788,61.8684324 C119.806788,60.8118428 120.663323,59.9553077 121.719912,59.9553077 L143.10673,59.9553077 Z M166.766783,134.726823 L166.730751,134.763056 L166.730751,134.763056 L156.046153,145.69172 C154.887884,146.876447 152.98851,146.897896 151.803783,145.739626 L151.76755,145.703594 L151.76755,145.703594 L148.110596,142.004404 C146.945769,140.826123 145.046305,140.815218 143.868025,141.980045 C143.859859,141.988118 143.851739,141.996237 143.843666,142.004403 L140.126396,145.764606 C138.971015,146.93333 138.971015,148.814094 140.126396,149.982818 L151.77166,161.762578 C152.936487,162.940858 154.835951,162.951764 156.014231,161.786937 C156.024981,161.77631 156.03565,161.765601 156.046238,161.754813 L174.729959,142.717467 C175.878113,141.547583 175.874707,139.672725 174.72231,138.50702 L171.009354,134.751182 C169.844527,133.572902 167.945063,133.561996 166.766783,134.726823 Z M110.109614,134.726823 L110.073582,134.763056 L110.073582,134.763056 L99.3889839,145.69172 C98.2307147,146.876447 96.3313409,146.897896 95.1466137,145.739626 L95.1103806,145.703594 L95.1103806,145.703594 L91.4534263,142.004404 C90.2885993,140.826123 88.3891357,140.815218 87.2108556,141.980045 C87.2026894,141.988118 87.1945696,141.996237 87.1864966,142.004403 L83.469226,145.764606 C82.3138457,146.93333 82.3138457,148.814094 83.469226,149.982818 L95.1144908,161.762578 C96.2793179,162.940858 98.1787815,162.951764 99.3570615,161.786937 L99.3890686,161.754813 L99.3890686,161.754813 L118.072789,142.717467 C119.220943,141.547583 119.217537,139.672725 118.065141,138.50702 L114.352185,134.751182 C113.187357,133.572902 111.287894,133.561996 110.109614,134.726823 Z" fill="#FFFFFF"></path>
    </g>
</svg>

<svg viewBox="0 0 256 274" xmlns="http://www.w3.org/2000/svg"><path fill="#2B64CF" d="M118.84 2.17c5.08-2.91 13.31-2.91 18.4 0l109.55 71.51c5.08 2.9 9.2 9.98 9.2 15.84v93.34c0 5.85-4.11 12.94-9.21 15.84l-109.56 72.55c-5.09 2.9-13.32 2.9-18.41 0L9.17 198.69c-5.09-2.91-9.21-9.99-9.21-15.85V89.49c0-5.86 4.1-12.95 9.2-15.85L118.79 2.12Z"/><path fill="#FFF" d="M143.1 59.95c1.05 0 1.91.85 1.91 1.91L145 94.27l43.22 0c4.75 0 8.6 3.85 8.6 8.6l-.01 33.89 4.99 0c1.58 0 2.86 1.28 2.86 2.86v28.35c0 1.58-1.29 2.86-2.87 2.86l-5-.01 0 16.98c0 4.75-3.86 8.6-8.61 8.6H68.13c-4.76 0-8.61-3.86-8.61-8.61l-.01-16.99 -5.45 0c-1.59 0-2.87-1.29-2.87-2.87v-28.36c0-1.59 1.28-2.87 2.86-2.87l5.44-.01 0-33.9c0-4.76 3.85-8.61 8.6-8.61l68.92-.01v-9.12l-15.41 0c-1.06 0-1.92-.86-1.92-1.92V61.74c0-1.06.85-1.92 1.91-1.92h21.38Zm23.66 74.77l-.04.03v0l-10.69 10.92c-1.16 1.18-3.06 1.2-4.25.04l-.04-.04v0l-3.66-3.7c-1.17-1.18-3.07-1.19-4.25-.03 -.01 0-.02.01-.03.02l-3.72 3.76c-1.16 1.16-1.16 3.04 0 4.21l11.64 11.77c1.16 1.17 3.06 1.18 4.24.02 .01-.02.02-.03.03-.04l18.68-19.04c1.14-1.17 1.14-3.05-.01-4.22l-3.72-3.76c-1.17-1.18-3.07-1.19-4.25-.03Zm-56.66 0l-.04.03v0l-10.69 10.92c-1.16 1.18-3.06 1.2-4.25.04l-.04-.04v0l-3.66-3.7c-1.17-1.18-3.07-1.19-4.25-.03 -.01 0-.02.01-.03.02l-3.72 3.76c-1.16 1.16-1.16 3.04 0 4.21l11.64 11.77c1.16 1.17 3.06 1.18 4.24.02l.03-.04v0l18.68-19.04c1.14-1.17 1.14-3.05-.01-4.22l-3.72-3.76c-1.17-1.18-3.07-1.19-4.25-.03Z"/></svg>
